X:1
T:Title
%%score 1 { 2 | 3 }
L:1/8
Q:1/4=112
M:4/4
K:Eb
V:1 treble nm="Drawbar Organ, Staff"
V:2 bass nm="Church Organ, Diadema, Joseph Barnby"
V:3 bass 
V:1
 [EG]4 [GB]2 [Ge]2 | [Ad]6 [Dc]2 | [EB]2 [EG]2 E2 [DF]2 | [DF]4 [EG]4 | [EA]4 [=EA]2 [EG]2 | %5
w: By~Joseph~Barnby,~1883 * *|||||
 [Fc]6 [GB]2 | [CB]2 [CA]2 C2 [CG]2 | [DF]8 | [_DG]4 [DF]2 [DE]2 | [Cc]6 [=Ec]2 | %10
w: |||||
 [Fc]2 [Gc]2 [=Af]2 [Ae]2 | [Ae]4 [Ad]4 | [Ge]4 [EG]2 [_DB]2 | [CE]6 [EF]2 | [EG]8 |] %15
w: |||||
V:2
 B,4 B,2 B,2 | B,6 A,2 | B,2 B,2 C2 =B,2 | =B,4 _B,4 | A,4[K:treble] C2 C2 | C6 C2 | %6
 C2 C2[K:bass] A,2 A,2 | A,8 | B,4 A,2 G,2 | A,6 B,2 | =A,2 B,2[K:treble] C2 F2 | F4 F4 | %12
 E4 _D2[K:bass] B,2 | B,4 A,2 C2 | B,8 |] %15
V:3
 E,4 E,2 E,2 | F,6 F,2 | G,2 G,2 A,2 A,2 | A,4 E,2 D,2 | C,4 z2 B,2 | A,6 =E,2 | %6
 F,2 F,2 A,,2 A,,2 | B,,8 | E,4 E,2 E,2 | z4 z2 G,2 | F,2 F,2 F,2 F,2 | B,4 B,,4 | C,4 B,,2 G,,2 | %13
 A,,6 A,,2 | E,8 |] %15

